!!!COM: Palestrina, Giovanni Perluigi da
!!!OPR: Jesu Nostra Redemptio
!!!OTL: Agnus II
**kern	**kern	**kern	**kern	**kern	**kern
*Ibass	*Itenor	*Itenor	*Icalto	*Icalto	*Icant
!Bassus	!Tenor 2	!Tenor 1	!Altus 2	!Altus 1	!Cantus
*clefF4	*clefGv2	*clefGv2	*clefG2	*clefG2	*clefG2
*k[]	*k[]	*k[]	*k[]	*k[]	*k[]
*E:phr	*E:phr	*E:phr	*E:phr	*E:phr	*E:phr
*M4/2	*M4/2	*M4/2	*M4/2	*M4/2	*M4/2
=1	=1	=1	=1	=1	=1
0r	0r	0r	0c	0r	0r
=2	=2	=2	=2	=2	=2
0r	0r	1r	1B	0r	0r
.	.	[1F	[1c	.	.
=3	=3	=3	=3	=3	=3
0r	0r	1F]	2c]	0r	0r
.	.	.	2d	.	.
.	.	1E	1e	.	.
=4	=4	=4	=4	=4	=4
0r	0r	1.F	2d	0r	0f
.	.	.	4c	.	.
.	.	.	4B	.	.
.	.	.	2A	.	.
.	.	2G	2B	.	.
=5	=5	=5	=5	=5	=5
0r	0r	2.A	1c	0r	1e
.	.	4G	.	.	.
.	.	4F	1d	.	[1f
.	.	4E	.	.	.
.	.	2D	.	.	.
=6	=6	=6	=6	=6	=6
0r	0F	2.A	2.c	0r	2f]
.	.	.	.	.	2g
.	.	4B	4B	.	.
.	.	2c	1A	.	1a
.	.	2d	.	.	.
=7	=7	=7	=7	=7	=7
0r	1E	2.e	2c	0r	1g
.	.	.	2B	.	.
.	.	4d	.	.	.
.	[1F	4c	2A	.	2f
.	.	4B	.	.	.
.	.	[2A	[2f	.	[2a
=8	=8	=8	=8	=8	=8
0r	2F]	2A]	2f]	0c	2a]
.	2G	2B	1e	.	1g
.	1A	1c	.	.	.
.	.	.	4d	.	2f#
.	.	.	4c	.	.
=9	=9	=9	=9	=9	=9
1r	[0G	2r	1d	1B	0g
.	.	2G	.	.	.
[1C	.	2E	[1e	[1c	.
.	.	4C	.	.	.
.	.	4D	.	.	.
=10	=10	=10	=10	=10	=10
2C]	0G]	4E	2e]	2c]	2r
.	.	4C	.	.	.
2BB	.	2G	2d	2d	1g
1C	.	1E	2.c	1e	.
.	.	.	.	.	2e
.	.	.	4B	.	.
=11	=11	=11	=11	=11	=11
0D	0F	2.A	4A	[0d	2f
.	.	.	4G	.	.
.	.	.	2F	.	4d
.	.	4G	.	.	4e
.	.	4F	1A	.	4f
.	.	4E	.	.	4g
.	.	2D	.	.	4a
.	.	.	.	.	4f
=12	=12	=12	=12	=12	=12
1GG	1D	1G	1B-	0d]	1g
1D	1F	4F	[1A	.	2a
.	.	4G	.	.	.
.	.	4A	.	.	2d
.	.	4B	.	.	.
=13	=13	=13	=13	=13	=13
2AA	2.E	4c	2A]	0c	0e
.	.	4d	.	.	.
2.C	.	1e	4G	.	.
.	4F	.	4F	.	.
.	1G	.	2E	.	.
4D	.	.	.	.	.
4E	.	2E	[2e	.	.
4C	.	.	.	.	.
=14	=14	=14	=14	=14	=14
1D	1F	2r	2e]	1A	0a
.	.	2.A	2d	.	.
4AA	[1E	.	[1e	1c	.
4BB	.	4G	.	.	.
4C	.	4E	.	.	.
4D	.	4F#	.	.	.
=15	=15	=15	=15	=15	=15
4E	1E]	4G	1e]	2.B	2.g
4F#	.	4A	.	.	.
2G	.	2.B	.	.	.
.	.	.	.	4c	4a
2GG	1r	.	1r	1d	1b
.	.	4A	.	.	.
2BB	.	[2G	.	.	.
=16	=16	=16	=16	=16	=16
1AA	0r	2G]	1r	1c	2cc
.	.	2F#	.	.	2a
1GG	.	2.G	1d	[1B	[1b
.	.	4F	.	.	.
=17	=17	=17	=17	=17	=17
1r	1G	1E	2e	1B]	1b]
.	.	.	1g	.	.
2r	1A	1D	.	1r	1r
2D	.	.	2f	.	.
=18	=18	=18	=18	=18	=18
1E	1.c	2.C	1e	0r	1r
.	.	4D	.	.	.
[1G	.	4E	2e	.	1g
.	.	4F	.	.	.
.	2B-	2G	[2d	.	.
=19	=19	=19	=19	=19	=19
2G]	1A	1D	2d]	1d	1a
2F	.	.	2A	.	.
1E	2.G	1r	1r	1e	2cc
.	.	.	.	.	4b
.	4F	.	.	.	4a
=20	=20	=20	=20	=20	=20
1r	1E	1G	0r	1.g	2b
.	.	.	.	.	2cc
2r	1D	1A	.	.	1dd
2D	.	.	.	2f	.
=21	=21	=21	=21	=21	=21
2E	1C	1c	2r	1e	2.g
1G	.	.	1G	.	.
.	.	.	.	.	4a
.	1r	2B	.	2.d	2b
2F#	.	[2d	2A	.	[2a
.	.	.	.	4c	.
=22	=22	=22	=22	=22	=22
2G	0r	2d]	2B	1B	4a]
.	.	.	.	.	4g
2G	.	2G	2d	.	1g
1D	.	4A	2.d	1A	.
.	.	4D	.	.	.
.	.	[2d	.	.	2f#
.	.	.	4c	.	.
=23	=23	=23	=23	=23	=23
1GG	1r	4d]	4B	1G	1g
.	.	4c	4G	.	.
.	.	2B	1g	.	.
1r	1D	1A	.	1r	[1a
.	.	.	4f	.	.
.	.	.	4e	.	.
=24	=24	=24	=24	=24	=24
0r	1D	2r	2f	0r	1a]
.	.	2A	2d	.	.
.	1C	1c	1e	.	2r
.	.	.	.	.	2e
=25	=25	=25	=25	=25	=25
0r	1D	2A	1d	1r	2f
.	.	2.F	.	.	2d
.	[1F	.	1c	1A	2.a
.	.	4G	.	.	.
.	.	4A	.	.	.
.	.	4B	.	.	4g
=26	=26	=26	=26	=26	=26
1r	2F]	2c	1r	1A	1f
.	2D	2d	.	.	.
2r	1E	1B	2r	1G	1e
2E	.	.	2e	.	.
=27	=27	=27	=27	=27	=27
2F	0r	[0A	2c	1A	2r
2D	.	.	2.f	.	2a
2.A	.	.	.	[1c	1a
.	.	.	4e	.	.
.	.	.	[2e	.	.
4G	.	.	.	.	.
=28	=28	=28	=28	=28	=28
1F	0r	1A]	2e]	2c]	2a
.	.	.	2d	2A	2a
1E	.	2r	2.e	1B	2.g
.	.	2e	.	.	.
.	.	.	4f#	.	4a
=29	=29	=29	=29	=29	=29
0r	0G	2d	1g	0r	2b
.	.	2c	.	.	1cc
.	.	1d	2r	.	.
.	.	.	2g	.	2b
=30	=30	=30	=30	=30	=30
0r	0A	2.c	2f	0r	2cc
.	.	.	2.e	.	2c
.	.	8B	.	.	.
.	.	8A	.	.	.
.	.	1c	.	.	2e
.	.	.	4d	.	.
.	.	.	[2c	.	2f#
=31	=31	=31	=31	=31	=31
0r	[0G	1d	2c]	0d	1g
.	.	.	4B	.	.
.	.	.	4A	.	.
.	.	2r	2B	.	1g
.	.	2G	2B	.	.
=32	=32	=32	=32	=32	=32
0C	0G]	2E	1c	0e	1g
.	.	2E	.	.	.
.	.	2C	1c	.	1r
.	.	2c	.	.	.
=33	=33	=33	=33	=33	=33
1D	0F	2A	0r	[0d	1a
.	.	2A	.	.	.
[1BB-	.	2.D	.	.	[1b-
.	.	4E	.	.	.
=34	=34	=34	=34	=34	=34
2BB-]	1D	2F	2r	0d]	1b-]
2GG	.	2G	2g	.	.
1D	1F	1A	2f	.	[1a
.	.	.	2d	.	.
=35	=35	=35	=35	=35	=35
2AA	2.E	0r	2.e	0c	2a]
1C	.	.	.	.	4g
.	4F	.	4d	.	4f
.	1G	.	2c	.	2e
2C	.	.	[2e	.	2e
=36	=36	=36	=36	=36	=36
1D	1F	0r	2e]	1A	1a
.	.	.	2d	.	.
1AA	[1E	.	[1e	1c	1a
=37	=37	=37	=37	=37	=37
1E	1E]	1G	1e]	2.B	2r
.	.	.	.	.	2g
.	.	.	.	4c	.
1D	1r	[1A	2r	1d	2f
.	.	.	2f	.	2d
=38	=38	=38	=38	=38	=38
0r	0r	1A]	2e	1c	2e
.	.	.	2c	.	2f
.	.	[1G	2d	[1B	[1g
.	.	.	2e	.	.
=39	=39	=39	=39	=39	=39
1r	0r	1G]	2d	1B]	1g]
.	.	.	2.e	.	.
1D	.	2F	.	1r	1a
.	.	.	4d	.	.
.	.	[2A	[2d	.	.
=40	=40	=40	=40	=40	=40
1E	1G	4A]	2d]	0r	1r
.	.	4G	.	.	.
.	.	1G	2c#	.	.
1D	1A	.	1d	.	2r
.	.	2F#	.	.	2a
=41	=41	=41	=41	=41	=41
1BB	[0G	2.G	1d	0r	2b
.	.	.	.	.	1dd
.	.	4F	.	.	.
1C	.	2E	1e	.	.
.	.	2C	.	.	[2cc
=42	=42	=42	=42	=42	=42
1GG	0G]	1D	1d	1d	2cc]
.	.	.	.	.	2b
1C	.	1r	2.c	1e	1cc
.	.	.	4B	.	.
=43	=43	=43	=43	=43	=43
1D	1F	2r	4A	[0d	2r
.	.	.	4G	.	.
.	.	2d	2F	.	2a
1GG	1D	2B-	2G	.	1b-
.	.	2G	2g	.	.
=44	=44	=44	=44	=44	=44
0D	0F	1A	1f	0d]	1a
.	.	2B-	1d	.	1f
.	.	2A	.	.	.
=45	=45	=45	=45	=45	=45
1AA	1E	1A	2e	1c	2.a
.	.	.	2.e	.	.
.	.	.	.	.	4g
1D	1F	1r	.	1A	1f
.	.	.	8d	.	.
.	.	.	8c	.	.
.	.	.	2d	.	.
=46	=46	=46	=46	=46	=46
0C	[0G	2r	2.e	0c	1e
.	.	2E	.	.	.
.	.	.	4f	.	.
.	.	2E	[1g	.	2r
.	.	[2G	.	.	2e
=47	=47	=47	=47	=47	=47
0r	0G]	4G]	1g]	1B	2e
.	.	4F	.	.	.
.	.	4E	.	.	1g
.	.	4D	.	.	.
.	.	1E	1G	1c	.
.	.	.	.	.	2e
=48	=48	=48	=48	=48	=48
2r	[0F	1D	2A	[0d	2.f
2D	.	.	2B-	.	.
.	.	.	.	.	4g
2D	.	2r	1A	.	1a
[2F	.	2D	.	.	.
=49	=49	=49	=49	=49	=49
4F]	0F]	2D	2.f	0d]	1a
4E	.	.	.	.	.
4D	.	1F	.	.	.
4C	.	.	4e	.	.
1D	.	.	4d	.	2r
.	.	.	4c	.	.
.	.	2D	2d	.	2a
=50	=50	=50	=50	=50	=50
0AA	[0E	2r	[0e	[0c	2a
.	.	2A	.	.	2.cc
.	.	2A	.	.	.
.	.	.	.	.	4b
.	.	[2c	.	.	4a
.	.	.	.	.	4g
=51	=51	=51	=51	=51	=51
0AA	0E]	2c]	0e]	0c]	2a
.	.	2A	.	.	2a
.	.	1A	.	.	1a
=52	=52	=52	=52	=52	=52
[0E	[0E	[0G#	[0e	[0B	[0b
=53	=53	=53	=53	=53	=53
0E]	0E]	0G#]	0e]	0B]	0b]
==	==	==	==	==	==
*-	*-	*-	*-	*-	*-
!!!CDT: 1525/^1526/-1594/2/2
!!!OCY: Italia
!!!AGN: Mass (Paraphrase)
!!!AST: renaissance, vocal
!!!ASW: Hymn
!!!PWK: Masses, Book 4
!!!RNB: Cadence finals: C,A
!!!YOR: Le Opere Complete, v. 10, p. 38
!!!YOO: Rome, Italy: Fratelli Scalera
!!!END: 1992//
!!!EED: John Miller
!!!YEC: Copyright 2000, John Miller
!!!YEN: United States of America
!!!YEM: Rights to all derivative electronic formats reserved.
!!!YEM: Refer to licensing agreement for further details.
!!!YEM: This file must be accompanied by the licensing agreement.
!!!YEM: A copy of the licensing agreement may be found at http://www.music-cog.ohio-state.edu/HumdrumDatabases/Palestrina/license.txt
!!!EMD: converted to Humdrum by Bret Aarden
